X:459
T: "Reiterlied"
N: Z1139
O: Europa, Mitteleuropa, Deutschland, Rhein
R: Vaterland und Wehr
M: 4/4
L: 1/16
K: Bb
F3F | B6B2F6F2 | D4F2D2B,4
B2B2 | c4d4c4d4 | c2f2=e2d2c4
c2B2 | A4A4c4c4 | F8z4
c2d2 | e6c2e4d4 | d4c4z4
d2c2 | B4B4c4c4 | f6d2B4
B2A2 | G2e2d2c2d4c4 | B8z4

